X:1
T:Title
%%score { 1 | 2 }
L:1/8
M:6/4
K:G
V:1 treble nm="Grand Piano"
V:2 treble 
V:1
 z6 z4[Q:1/4=132] B2 | B2 c2 B2 [FA]2 [FB]2 [FA]2 | G2 F2 E2 D4 B2 | d2 e2 d2 [Ac]2 [Bd]2 [Ac]2 | %4
 B6- B4 B2 | B2 c2 B2 [FA]2 [FB]2 [FA]2 | G2 E2 F2 G4 B2 | ^c2 B2 A2 e2 B2 c2 | %8
[M:5/4] [Fd]2- [Fd]2- [Fd]6 |[M:1/4] [Fd][Fd] | %10
[M:6/4] [EFc]2 [DFB]2 [CFA]2 [A,CE]2 [A,CF]2[K:bass] [F,CE]2 | [G,B,D]6- [G,B,D]4[K:treble] BB | %12
 B2 A2 G2 E2 F2 G2 | [FA]6- [FA]4 DD | D2 E2 F2 G2 A2 B2 | d2 e2 d2 [Ec]4 [EB][EA] | %16
 [Gd]2 B2 G2 F2 G2 A2 |[M:5/4] [B,G]2- [B,G]2- [B,G]6 |] %18
V:2
 z6 z4 [G,DG]2 | [G,DG]2 [G,EG]2 [G,DG]2[K:bass] [D,C]2 [D,D]2 [D,C]2 | %2
 [G,B,D]2 [G,_B,^C]2 [G,B,C]2 [G,=B,]4[K:treble] [G,DG]2 | %3
 [G,B,G]2 [G,CG]2 [G,B,G]2[K:bass] [D,D]2 [D,D]2 [F,D]2 | [G,DG]6- [G,DG]4 [G,DG]2 | %5
 [G,DG]2 [G,EG]2 [G,DG]2[K:bass] [D,C]2 [D,D]2 [^D,C]2 | %6
 [E,B,E]2 [G,B,]2[K:treble] [A,B,^D]2 [G,B,E]4 [G,=DG]2 | %7
 [A,G]2 [A,DG]2 [A,^CG]2 [A,CG]2 [A,DG]2 [A,EG]2 |[M:5/4][K:bass] [D,D]2- [D,D]2- [D,D]6 | %9
[M:1/4] [D,D][D,D] |[M:6/4] D,2 D,2 D,2 D,2 D,2 D,2 | G,,6- G,,4[K:treble] [G,DG][G,DG] | %12
 [A,^CG]2 [A,CG]2 [A,CE]2[K:bass] [A,C]2 [A,CE]2 [A,CE]2 | [D,D]6- [D,D]4 [D,C][D,C] | %14
 [G,B,]2[K:treble] [G,C]2 [G,CD]2 [G,B,D]2 [G,CF]2 [G,DG]2 | %15
 [G,B,=F]2 [G,B,G]2 [G,B,F]2[K:bass] [C,G,]4 [B,,^G,][C,A,] | %16
 [D,B,]2 [D,G,D]2 [D,A,^C]2 [D,A,=C]2 [D,G,B,]2 [D,F,C]2 |[M:5/4] [G,,G,]2- [G,,G,]2- [G,,G,]6 |] %18

